svgs/sharp-regular/square-q.svg

<svg xmlns="http://www.w3.org/2000/svg" viewBox="0 0 448 512"><!--! Font Awesome Pro 6.6.0 by @fontawesome - https://fontawesome.com License - https://fontawesome.com/license (Commercial License) Copyright 2024 Fonticons, Inc. --><path d="M48 80l0 352 352 0 0-352L48 80zM0 32l48 0 352 0 48 0 0 48 0 352 0 48-48 0L48 480 0 480l0-48L0 80 0 32zM224 176c-44.2 0-80 35.8-80 80s35.8 80 80 80c13.9 0 26.9-3.5 38.3-9.7L206.1 256l61.5 0 28.3 35.3c5.3-10.7 8.2-22.6 8.2-35.3c0-44.2-35.8-80-80-80zm0 208c-70.7 0-128-57.3-128-128s57.3-128 128-128s128 57.3 128 128c0 28.1-9 54-24.4 75.1L369.9 384l-61.5 0-15.9-19.9C272.7 376.7 249.2 384 224 384z"/></svg>

<svg xmlns="http://www.w3.org/2000/svg" viewBox="0 0 448 512"><!--! Font Awesome Pro 6.5.2 by @fontawesome - https://fontawesome.com License - https://fontawesome.com/license (Commercial License) Copyright 2024 Fonticons, Inc. --><path d="M48 80V432H400V80H48zM0 32H48 400h48V80 432v48H400 48 0V432 80 32zM224 176c-44.2 0-80 35.8-80 80s35.8 80 80 80c13.9 0 26.9-3.5 38.3-9.7L206.1 256h61.5l28.3 35.3c5.3-10.7 8.2-22.6 8.2-35.3c0-44.2-35.8-80-80-80zm0 208c-70.7 0-128-57.3-128-128s57.3-128 128-128s128 57.3 128 128c0 28.1-9 54-24.4 75.1L369.9 384H308.5l-15.9-19.9C272.7 376.7 249.2 384 224 384z"/></svg>
